X:1
T:Mill of Laggan
T:Mill of Laggan
T:William Marshall
C:William Marshall
L:1/8
Q:1/8=232
M:4/4
K:F
V:1 treble 
V:1
|: A | FA cf f2 ef | ga ba gG GA | FA cf f2 ef | af ge fF FA | FA cf f2 ef | ga ba gG GA | %7
 FA cf f2 ef | af ge fF FB | AB/c/ cA Bc/d/ dB | de/f/ fd ec cb | af ge f2 dB | AB/c/ GB AF FB | %13
 AB/c/ cA Bc/d/ dB | de/f/ fd ec cb | af ca ge ce | fd cB AFF :| %17

